X: 42776
T: White Star
R: reel
M: 4/4
K: Amajor
|:E2FE AcAc|BBAB cAdA|FdAd cAec|BecA BAFA|
E2FE AcAc|BBAB cAdA|FdAd cAec|1 BAGB A2GF:|2 BAGB A2z2||
|:AAaA AaAa|ABcA BAFE|d2Bd cAec|BecA BAFA|
AAaA AaAa|ABcA BAFE|d2Bd cAec|BAGB A2z2:|

